X:1
T:O Lux Beata Trinitas
T:Victoria edit, Amen BMarble
T:O Lux Beata Trinitas
T:Copyright © 2015 by The Choral Public Domain Library. Edition may be freely distributed, duplicated, performed or recorded.
T:Copyright © 2015 by The Choral Public Domain Library. Edition may be freely distributed, duplicated, performed or recorded.
T:Copyright © 2015 by The Choral Public Domain Library. Edition may be freely distributed, duplicated, performed or recorded.
T:Copyright © 2015 by The Choral Public Domain Library. Edition may be freely distributed, duplicated, performed or recorded.
T:Copyright © 2015 by The Choral Public Domain Library. Edition may be freely distributed, duplicated, performed or recorded.
T:Copyright © 2015 by The Choral Public Domain Library. Edition may be freely distributed, duplicated, performed or recorded.
T:Copyright © 2015 by The Choral Public Domain Library. Edition may be freely distributed, duplicated, performed or recorded.
C:Victoria
C:edit, Amen BMarble
Z:Copyright © 2015 by The Choral Public Domain Library. Edition may be freely distributed, duplicated, performed or recorded.
%%score [ 1 2 3 4 ]
L:1/8
Q:1/2=56
M:4/4
K:D
V:1 treble nm="Soprano" snm="S."
V:2 treble nm="Alto" snm="A."
V:3 treble-8 transpose=-12 nm="Tenor" snm="T."
V:4 bass nm="Baritone" snm="Bar."
V:1
 z30 | z30 | z34 | z26 ||[M:4/2][Q:1/2=92] z16 | z16 | (G8 A8) | (G8 F8) | D8 E8 | F8 (G8 | A8 B8 | %11
w: ||||||2.~Te _|ma- *|ne lau-|dum car-||
 A12) A4 | G8 z8 | z16 | (G8 A8) | (G8 F8) | D8 E8 | F8 (G8 | A8 B8 | A12) A4 | G8 z8 | z16 | A16 | %23
w: * mi-|ne,||te _|de- *|pre- ce-|mur ve-||* spe-|re;||te|
 d8 B8 | (c8 d6 c2 | B4) A4 (G8 | F8) E8 | D16 | z8 G8- | G8 (A8 | G12) E4 | F8 G8 | A6 G2 A4 B4- | %33
w: nos tra|sup- * *|* plex glo-|* ri-|a|per|_ cun-|* cta|lau- det|sae- * * *|
 B2 A2 A8 ^G4 | A16- | A16- | A16- | A16 ||[Q:1/2=56][Q:1/2=56] z30 | z30 | z34 | z26 || %42
w: * * * cu-|la.|_|||||||
[M:3/1][Q:1/2=56] A4 (d6 c2 B2 A2) (G2 F2 E4) | E16 |] %44
w: A- men, _ _ _ a- * *|men.|
V:2
 z30 | z30 | z34 | z26 ||[M:4/2] (D8 E8) | (D4 B,4 C8) | B,4 (E8 ^D4) | E4 B,2 C2 D2 E2 F4- | %8
w: ||||2.~Te _|ma- * *|ne lau- *|dum car- * * * *|
 F2 E2 D8 C4 | D4 F4 E4 G4 | F4 E4 F2 D2 G4- | G4 F2 E2 F4 F4 | G8 z4 E4 | F4 A4 G4 E4 | %14
w: * * * mi-|ne, te ma- ne|lau- dum car- * *|* * * * mi-|ne, te|de- pre- ce- mur|
 D4 E6 D2 D4- | D4 C4 D4 A,4- | A,4 B,8 C4 | (D6 C2 B,8) | A,8 D8- | D8 D8 | B,4 D8 G4 | E4 F8 D4 | %22
w: ve- * * *|* spe- re, te|_ de- pre-|ce- * *|mur ve-|* spe-|re; te nos-|tra sup- plex|
 E4 E4 F8- | F8 z4 E4- | E4 A8 F4 | (G4 F2 E2 D4) E4 | (F4 D8) C4 | D4 A,4 (B,2 C2 D2 E2 | %28
w: glo- ri- a,|_ te|_ nos- tra|sup- * * * plex|glo- * ri-|a per cun- * * *|
 F4) F4 E4 B,4 | (D4 E4 C4) D4 | B,8 z8 | z4 A,4 (B,2 C2 D2 E2 | F4) E4 F4 G4 | A4 F4 E8 | %34
w: * cta lau- det|sae- * * cu-|la,|per cun- * * *|* cta lau- det|sae- cu- la,|
 z4 E4 F8 | E4 (A6 G2 F2 E2 | D4) E4 F4 F4 | E16 || z30 | z30 | z34 | z26 || %42
w: per cun-|cta lau- * * *|* det sae- cu-|la.|||||
[M:3/1] (E2 F2 G8) F4 (E2 D2 C2 B,2) | C16 |] %44
w: A- * * men, a- * * *|men.|
V:3
 (G2 A2) (G2 F2) D2 E2 F2 (G2 A2 B2) A2 G8 | (G2 A2) (G2 F2) D2 E2 F2 (G2 A2 B2) A2 G8 | %2
w: 1.~O _ lux _ be- a- ta Tri- * * ni- tas|et _ prin- * ci- pa- lis u- * * ni- tas,|
 A2 d2 (c2 d2) B2 (A2 G2) (A2 B2) (A2 G2) (F2 E2 D8) | G2 (F2 G2) E2 F2 G2 (A2 B2) B2 A8 || %4
w: jam sol re- * ce- dit _ i- * gne- * us: _ _|in- fun- * de lu- men cor- * di- bus.|
[M:4/2] z16 | (G8 A8) | G4 E4 F8 | E8 B8- | B8 A8 | D4 d4 c4 B4 | d4 e4 d8- | d4 d4 d8 | %12
w: |2.~Te _|ma- ne lau-|dum car-|* mi-|ne, te ma- ne|lau- dum car-|* mi- ne,|
 z4 B4 c4 e4 | d4 c4 (e6 dc | B4) B4 A8 | z4 G4 A8 | F4 G8 A4- | A4 B6 E2 e4 | d4 c4 B4 G4- | %19
w: Te de- pre-|ce- mur ve- * *|* spe- re,|te de-|pre- ce- mur|_ ve- * *|* spe- re, ve-|
 (G4 F2 E2 F4) F4 | (G6 A2 B8) | z4 A4 d8- | d4 c4 (d6 c2 | B4 A8) ^G4 | A6 G2 (F2 E2) A4 | %25
w: * * * * spe-|re; _ _|te nos-|* tra sup- *|* * plex|glo- ri- a, _ te|
 G4 A4 B4 G4 | A12 A4 | A8 z4 G4 | (A8 G8-) | G4 E4 F8 | G4 B8 c4 | d4 D4 d8- | (d4 c2 B2 c4) B4 | %33
w: nos- tra sup- plex|glo- ri-|a per|cun- *|* cta lau-|det sae- cu-|la, per cun-|* * * * cta|
 c4 d4 c4 B4 | A4 c4 d8- | (d4 c2 B2 c4) d4 | f4 e4 d8- | d4 (c2 B2) c8 || %38
w: lau- det sae- cu-|la, per cun-|* * * * cta|lau- det sae-|* cu- * la.|
 (G2 A2) (G2 F2) D2 E2 F2 (G2 A2 B2) A2 G8 | (G2 A2) (G2 F2) D2 E2 F2 (G2 A2 B2) A2 G8 | %40
w: 3.~Chri- * stum _ ro- ga- mus et _ _ Pa- trem,|Chri- * sti _ Pa- tris- que Spi- * * ri- tum;|
 A2 d2 (c2 d2) B2 (A2 G2) (A2 B2) (A2 G2) (F2 E2 D8) | G2 (F2 G2) E2 F2 G2 (A2 B2) B2 A8 || %42
w: u- num po- * tens per _ o- * mni- * a, _ _|fo- ve _ pre- can- tes Tri- * ni- tas.|
[M:3/1] A4 B4 A12 ^G4 | A16 |] %44
w: A- * * *|men.|
V:4
 z30 | z30 | z34 | z26 ||[M:4/2] z16 | z16 | z16 | z16 | z16 | (D,8 E,8) | D,4 C,4 B,,4 G,,4 | %11
w: |||||||||2.~Te _|ma- ne lau- dum|
 D,12 D,4 | G,,4 G,4 A,4 G,4 | F,8 E,8 | (G,8 F,8) | E,8 D,8 | z16 | D,8 E,8 | F,8 G,4 G,,4 | %19
w: car- mi-|ne, te de- pre-|ce- mur|ve- *|spe- re,||te de-|pre- ce- mur|
 D,12 D,4 | G,,8 G,8 | (A,8 B,8) | A,8 D,8- | D,8 E,8 | (A,,8 D,8) | E,4 F,4 G,4 E,4 | D,8 A,,8 | %27
w: ve- spe-|re; te|nos- *|tra sup-|* plex|glo- *|ri- a, sup- plex|glo- ri-|
 D,8 z8 | z4 D,4 (E,2 F,2 G,2 A,2 | B,4) B,4 A,4 D,4 | (E,6 F,2 G,4) A,4 | D,4 D4 G,4 B,4 | %32
w: a|per cun- * * *|* cta lau- det|sae- * * cu-|la, per cun- cta|
 A,12 G,4 | F,4 D,4 E,8 | z4 A,4 D,4 F,4 | (A,6 G,2 F,2 E,2 D,4-) | D,4 C,4 D,4 D,4 | A,,16 || %38
w: lau- det|sae- cu- la,|per cun- cta|lau- * * * *|* det sae- cu-|la.|
 z30 | z30 | z34 | z26 ||[M:3/1] (A,4 G,4) D,8 E,8 | A,,16 |] %44
w: ||||A- * men, a-|men.|

